<?xml version="1.0" encoding="UTF-8"?><map version="1.10" tiledversion="1.12.1" orientation="orthogonal" renderorder="right-down" width="100" height="20" tilewidth="16" tileheight="16" infinite="0" nextlayerid="5" nextobjectid="242"><tileset firstgid="1" name="Terrain" tilewidth="16" tileheight="16" tilecount="48" columns="16"><image source="../sprites/tileset.png" width="256" height="48"/><tile id="0" type="Terrain"><properties><property name="Collision" type="int" propertytype="CollisionType" value="1"/></properties></tile><tile id="1" type="Terrain"><properties><property name="Collision" type="int" propertytype="CollisionType" value="1"/></properties></tile><tile id="2" type="Terrain"><properties><property name="Collision" type="int" propertytype="CollisionType" value="1"/></properties></tile><tile id="3" type="Terrain"><properties><property name="Collision" type="int" propertytype="CollisionType" value="1"/></properties></tile><tile id="4" type="Terrain"><properties><property name="Collision" type="int" propertytype="CollisionType" value="1"/></properties></tile><tile id="5" type="Terrain"><properties><property name="Collision" type="int" propertytype="CollisionType" value="2"/></properties></tile><tile id="6" type="Terrain"><properties><property name="Collision" type="int" propertytype="CollisionType" value="2"/></properties></tile><tile id="7" type="Terrain"><properties><property name="Collision" type="int" propertytype="CollisionType" value="2"/></properties></tile><tile id="8" type="Terrain"><properties><property name="Collision" type="int" propertytype="CollisionType" value="2"/></properties></tile><tile id="9" type="Terrain"><properties><property name="Collision" type="int" propertytype="CollisionType" value="2"/></properties></tile><tile id="10" type="Terrain"><properties><property name="Collision" type="int" propertytype="CollisionType" value="1"/></properties></tile><tile id="11" type="Terrain"><properties><property name="Collision" type="int" propertytype="CollisionType" value="1"/></properties></tile><tile id="12" type="Terrain"><properties><property name="Collision" type="int" propertytype="CollisionType" value="1"/></properties></tile><tile id="13" type="Terrain"><properties><property name="Collision" type="int" propertytype="CollisionType" value="1"/></properties></tile><tile id="14" type="Terrain"><properties><property name="Collision" type="int" propertytype="CollisionType" value="0"/></properties></tile><tile id="16" type="Terrain"><properties><property name="Collision" type="int" propertytype="CollisionType" value="1"/></properties></tile><tile id="17" type="Terrain"><properties><property name="Collision" type="int" propertytype="CollisionType" value="1"/></properties></tile><tile id="18" type="Terrain"><properties><property name="Collision" type="int" propertytype="CollisionType" value="1"/></properties></tile><tile id="19" type="Terrain"><properties><property name="Collision" type="int" propertytype="CollisionType" value="1"/></properties></tile><tile id="20" type="Terrain"><properties><property name="Collision" type="int" propertytype="CollisionType" value="1"/></properties></tile><tile id="21" type="Terrain"><properties><property name="Collision" type="int" propertytype="CollisionType" value="0"/></properties></tile><tile id="22" type="Terrain"><properties><property name="Collision" type="int" propertytype="CollisionType" value="0"/></properties></tile><tile id="23" type="Terrain"><properties><property name="Collision" type="int" propertytype="CollisionType" value="0"/></properties></tile><tile id="24" type="Terrain"><properties><property name="Collision" type="int" propertytype="CollisionType" value="0"/></properties></tile><tile id="25" type="Terrain"><properties><property name="Collision" type="int" propertytype="CollisionType" value="0"/></properties></tile><tile id="26" type="Terrain"><properties><property name="Collision" type="int" propertytype="CollisionType" value="1"/></properties></tile><tile id="27" type="Terrain"><properties><property name="Collision" type="int" propertytype="CollisionType" value="2"/></properties></tile><tile id="28" type="Terrain"><properties><property name="Collision" type="int" propertytype="CollisionType" value="2"/></properties></tile><tile id="29" type="Terrain"><properties><property name="Collision" type="int" propertytype="CollisionType" value="2"/></properties></tile><tile id="30" type="Terrain"><properties><property name="Collision" type="int" propertytype="CollisionType" value="0"/></properties></tile><tile id="32" type="Terrain"><properties><property name="Collision" type="int" propertytype="CollisionType" value="1"/></properties></tile><tile id="33" type="Terrain"><properties><property name="Collision" type="int" propertytype="CollisionType" value="1"/></properties></tile><tile id="34" type="Terrain"><properties><property name="Collision" type="int" propertytype="CollisionType" value="1"/></properties></tile><tile id="35" type="Terrain"><properties><property name="Collision" type="int" propertytype="CollisionType" value="1"/></properties></tile><tile id="36" type="Terrain"><properties><property name="Collision" type="int" propertytype="CollisionType" value="1"/></properties></tile><tile id="37" type="Terrain"><properties><property name="Collision" type="int" propertytype="CollisionType" value="0"/></properties></tile><tile id="38" type="Terrain"><properties><property name="Collision" type="int" propertytype="CollisionType" value="0"/></properties></tile><tile id="39" type="Terrain"><properties><property name="Collision" type="int" propertytype="CollisionType" value="0"/></properties></tile><tile id="40" type="Terrain"><properties><property name="Collision" type="int" propertytype="CollisionType" value="0"/></properties></tile><tile id="41" type="Terrain"><properties><property name="Collision" type="int" propertytype="CollisionType" value="0"/></properties></tile><tile id="42" type="Terrain"><properties><property name="Collision" type="int" propertytype="CollisionType" value="1"/></properties></tile><tile id="43" type="Terrain"><properties><property name="Collision" type="int" propertytype="CollisionType" value="3"/></properties></tile><tile id="44" type="Terrain"><properties><property name="Collision" type="int" propertytype="CollisionType" value="3"/></properties></tile><tile id="45" type="Terrain"><properties><property name="Collision" type="int" propertytype="CollisionType" value="3"/></properties></tile><tile id="46" type="Terrain"><properties><property name="Collision" type="int" propertytype="CollisionType" value="3"/></properties></tile></tileset><tileset firstgid="49" name="Objects" tilewidth="16" tileheight="16" tilecount="15" columns="5"><image source="../../../tiled/objects.png" width="80" height="48"/><tile id="0" type="SpawnPoint"/><tile id="1" type="Berry"/><tile id="2" type="BurriedItem"><properties><property name="Item" type="int" propertytype="ItemType" value="0"/></properties></tile><tile id="3" type="Crab"/><tile id="4" type="Turtle"/></tileset><layer id="1" name="Terrain" width="100" height="20"><data encoding="csv">0,0,0,0,0,0,0,0,0,0,0,0,0,0,0,0,0,0,0,0,0,0,0,0,0,0,0,0,0,0,0,0,0,0,0,0,0,0,0,0,0,0,0,0,0,0,0,0,0,0,0,0,0,0,0,0,0,0,0,0,0,0,0,0,0,0,0,0,0,0,0,0,0,0,0,0,0,0,0,0,0,0,0,0,0,0,0,0,0,0,0,0,0,0,0,0,0,0,0,0,0,0,0,0,0,0,0,0,0,0,0,0,0,0,0,0,0,0,0,0,0,0,0,0,0,0,0,0,0,0,0,0,0,0,0,0,0,0,0,0,0,0,0,0,0,0,0,0,0,0,0,0,0,0,0,0,0,0,0,0,0,0,0,0,0,0,0,0,0,0,0,0,0,0,0,0,0,0,0,0,0,0,0,0,0,0,0,0,0,0,0,0,0,0,0,0,0,0,0,0,0,0,0,0,0,0,0,0,0,0,0,0,0,0,0,0,0,0,0,0,0,0,0,0,0,0,0,0,0,0,0,0,0,0,0,0,0,0,0,0,0,0,0,0,0,0,0,0,0,0,0,0,0,0,0,0,0,0,0,0,0,0,0,0,0,0,0,0,0,0,0,0,0,0,0,0,0,0,0,0,0,0,0,0,0,0,0,0,0,0,0,0,0,0,0,0,0,0,0,0,0,0,0,0,0,0,0,0,0,0,0,0,0,0,0,0,0,0,0,0,0,0,0,0,0,0,0,0,0,0,0,0,0,0,0,0,0,0,0,0,0,0,0,0,0,0,0,0,0,0,0,0,0,0,0,0,0,0,0,0,0,0,0,0,0,0,0,0,0,0,0,0,0,0,0,0,0,0,0,0,0,0,0,0,0,0,0,0,0,0,0,0,0,0,0,0,0,0,0,0,0,0,0,0,0,0,0,0,0,0,0,0,0,0,0,0,0,0,0,0,0,0,0,0,0,0,0,0,0,0,0,0,0,0,0,0,0,0,0,0,0,0,0,0,0,0,0,0,0,0,0,0,0,0,0,0,0,0,0,0,0,0,0,0,0,0,0,0,0,0,0,0,0,0,0,0,0,0,0,0,0,0,0,0,0,0,0,0,0,0,0,0,0,0,0,0,0,0,0,0,0,0,0,0,0,0,0,0,0,0,0,0,0,0,0,0,0,0,0,0,0,0,0,0,0,0,0,0,0,0,0,0,0,0,0,0,0,0,0,0,0,0,0,0,0,0,0,0,0,0,0,0,0,0,0,0,0,0,0,0,0,0,0,0,0,0,0,0,0,0,0,0,0,0,0,0,0,0,0,0,0,0,0,0,0,0,0,0,0,0,0,0,0,0,0,0,0,0,0,0,0,0,0,0,0,0,0,0,0,0,0,0,0,0,0,0,0,0,0,0,0,0,0,0,0,0,0,0,0,0,0,0,0,0,0,0,0,0,0,0,0,0,0,0,0,0,0,0,0,0,0,0,0,0,0,0,0,0,0,0,0,0,0,0,0,0,0,0,0,0,0,0,0,0,0,0,0,0,0,0,0,0,0,0,0,0,0,0,0,0,0,0,0,0,0,0,0,0,0,0,0,0,0,0,0,0,0,0,0,0,0,0,0,0,0,0,0,0,0,0,0,0,0,0,0,0,0,0,0,0,0,0,0,0,0,0,0,0,0,0,0,0,0,0,0,0,0,0,0,0,0,0,0,0,0,0,0,0,0,0,0,0,0,0,0,0,0,0,0,0,0,0,0,0,0,0,0,0,0,0,0,0,0,0,0,0,0,0,0,0,0,0,0,0,0,0,0,0,0,0,0,0,0,0,0,0,0,0,0,0,0,0,0,0,0,0,0,0,0,0,0,0,0,0,0,0,0,0,0,0,0,0,0,0,0,0,0,0,0,0,0,0,0,0,0,0,0,0,0,0,0,0,0,0,0,0,0,0,0,0,0,0,0,0,0,0,0,0,0,0,0,0,0,0,0,0,0,0,0,0,0,0,0,0,0,0,0,0,0,0,0,0,0,0,0,0,0,0,0,0,0,0,0,0,0,0,0,0,0,0,0,0,0,0,0,0,0,0,0,0,0,0,0,0,0,0,0,0,0,0,0,0,0,0,0,0,0,0,0,0,0,0,0,0,0,0,0,0,0,0,0,0,0,0,0,0,0,0,0,0,0,0,0,0,0,0,0,0,0,0,0,0,0,0,0,0,0,0,0,0,0,0,0,0,0,0,0,0,0,0,0,0,0,0,0,0,0,0,0,0,0,0,0,0,0,0,0,0,0,0,0,0,0,0,0,0,0,0,0,0,0,0,0,0,0,0,0,0,0,0,0,0,0,0,0,0,0,0,0,0,0,0,6,7,8,0,0,0,0,0,0,0,0,0,0,0,0,0,0,0,0,0,0,0,0,0,0,0,0,0,0,0,0,0,0,0,0,0,0,0,0,0,0,0,0,0,0,0,0,0,0,0,0,0,0,0,0,0,0,0,0,0,0,0,0,0,0,0,0,0,0,0,0,6,7,7,7,7,8,0,0,0,0,0,0,0,0,0,0,0,0,0,0,0,0,0,0,0,0,0,0,0,22,23,24,0,0,0,0,0,0,0,0,0,0,0,0,0,0,0,0,0,0,0,0,0,0,0,0,0,0,0,0,0,0,0,0,0,0,0,0,0,0,0,0,0,0,0,0,0,0,0,0,0,0,0,0,0,0,0,0,0,0,0,0,0,0,0,0,0,0,0,0,22,23,23,23,23,24,0,0,0,0,0,0,0,0,0,0,0,0,0,0,0,0,0,0,0,0,0,0,0,22,23,24,0,0,0,0,0,0,0,0,0,0,0,0,0,0,0,0,0,0,0,0,0,0,0,0,0,0,0,0,0,0,0,0,0,0,0,0,0,0,0,0,0,0,0,0,0,0,0,0,0,0,0,0,0,0,0,0,0,0,0,0,0,0,0,0,0,0,0,0,22,23,23,23,23,23,0,0,0,0,0,0,0,0,0,0,0,0,0,0,0,0,0,0,0,0,0,0,0,22,23,24,0,0,0,0,0,0,0,0,0,0,0,0,0,0,0,0,0,0,0,0,0,0,0,0,0,0,0,0,0,0,0,0,0,0,0,0,0,0,0,0,0,0,0,0,0,0,0,0,0,0,0,0,0,0,0,0,0,0,0,0,0,0,0,0,0,6,7,7,7,10,23,23,23,24,0,0,0,0,0,0,0,0,0,0,0,0,0,0,0,0,0,0,1,3,0,0,0,22,23,24,0,0,0,12,13,14,0,0,0,0,0,0,0,0,0,0,0,0,0,0,0,0,0,0,0,0,0,0,0,0,0,0,0,0,0,0,0,0,0,0,0,0,0,0,0,0,0,0,0,0,0,0,0,0,0,0,0,0,0,0,0,0,0,0,0,22,23,23,23,26,23,23,23,24,0,0,0,0,0,0,0,0,0,0,0,0,0,0,0,0,0,0,17,18,2,2,2,2,2,2,2,2,2,2,2,2,2,3,0,0,0,0,0,0,1,2,2,2,2,3,0,0,0,0,0,0,0,0,0,0,0,0,0,0,0,0,0,0,0,0,0,0,0,0,0,0,0,0,0,0,0,0,0,0,0,0,0,0,0,0,0,0,0,0,0,22,23,23,23,26,23,23,23,24,0,0,0,0,0,0,0,0,0,0,12,13,13,13,14,0,0,0,17,18,18,18,37,18,18,18,18,18,37,18,18,18,18,19,0,0,0,0,0,0,17,18,18,18,18,19,0,0,0,0,0,0,0,0,0,0,0,0,0,0,0,0,0,0,0,0,0,0,0,0,0,0,0,0,0,0,0,0,0,0,0,2,2,2,2,2,2,2,2,2,2,2,2,2,2,2,2,2,2,2,2,2,2,2,2,2,2,2,2,2,3,15,15,15,1,2,2,2,21,18,18,18,18,18,18,18,18,37,18,18,18,18,18,19,15,15,15,15,15,15,17,18,18,18,18,20,2,2,2,2,2,2,3,0,0,0,0,0,0,0,0,0,0,0,0,0,0,0,0,0,0,0,0,0,0,0,0,0,0,0,0,18,18,37,18,18,18,18,18,18,18,37,18,18,18,18,18,18,37,18,18,18,18,18,18,18,37,18,37,18,19,31,31,31,17,18,37,18,18,18,18,18,18,18,18,18,18,18,18,18,18,18,18,19,31,31,31,31,31,31,17,18,18,18,18,18,18,18,18,18,18,18,19,0,0,0,0,0,0,0,0,0,0,0,0,0,0,0,0,0,0,0,0,0,0,0,0,0,0,0,0,18,18,18,18,18,18,18,18,37,18,18,18,18,18,18,18,18,18,37,18,18,18,18,18,18,18,18,18,18,19,31,31,31,17,18,18,37,18,18,18,18,18,18,18,18,18,18,18,18,18,18,18,19,31,31,31,31,31,31,17,18,18,18,18,18,18,18,18,18,18,18,19,0,0,0,0,0,0,0,0,0,0,0,0,0,0,0,0,0,0,0,0,0,0,0,0,0,0,0,0</data></layer><objectgroup id="2" name="Objects"><object id="195" type="SpawnPoint" gid="49" x="64" y="272" width="16" height="16"/><object id="197" type="BurriedItem" gid="51" x="128" y="272" width="16" height="16"><properties><property name="Item" type="int" propertytype="ItemType" value="0"/></properties></object><object id="198" type="BurriedItem" gid="51" x="112" y="272" width="16" height="16"><properties><property name="Item" type="int" propertytype="ItemType" value="0"/></properties></object><object id="199" type="BurriedItem" gid="51" x="176" y="224" width="16" height="16"><properties><property name="Item" type="int" propertytype="ItemType" value="0"/></properties></object><object id="200" type="BurriedItem" gid="51" x="192" y="224" width="16" height="16"><properties><property name="Item" type="int" propertytype="ItemType" value="0"/></properties></object><object id="201" type="BurriedItem" gid="51" x="256" y="176" width="16" height="16"><properties><property name="Item" type="int" propertytype="ItemType" value="1"/></properties></object><object id="202" type="Crab" gid="52" x="336" y="272" width="16" height="16"/><object id="203" type="BurriedItem" gid="51" x="256" y="272" width="16" height="16"><properties><property name="Item" type="int" propertytype="ItemType" value="0"/></properties></object><object id="204" type="BurriedItem" gid="51" x="240" y="272" width="16" height="16"><properties><property name="Item" type="int" propertytype="ItemType" value="0"/></properties></object><object id="205" type="BurriedItem" gid="51" x="240" y="272" width="16" height="16"><properties><property name="Item" type="int" propertytype="ItemType" value="0"/></properties></object><object id="207" type="Berry" gid="50" x="240" y="144" width="16" height="16"/><object id="208" type="Berry" gid="50" x="256" y="144" width="16" height="16"/><object id="209" type="Berry" gid="50" x="256" y="144" width="16" height="16"/><object id="213" type="Crab" gid="52" x="496" y="256" width="16" height="16"/><object id="214" type="Berry" gid="50" x="480" y="208" width="16" height="16"/><object id="215" type="Berry" gid="50" x="512" y="208" width="16" height="16"/><object id="216" type="Berry" gid="50" x="496" y="208" width="16" height="16"/><object id="217" type="BurriedItem" gid="51" x="384" y="272" width="16" height="16"><properties><property name="Item" type="int" propertytype="ItemType" value="0"/></properties></object><object id="218" type="BurriedItem" gid="51" x="400" y="272" width="16" height="16"><properties><property name="Item" type="int" propertytype="ItemType" value="1"/></properties></object><object id="220" type="BurriedItem" gid="51" x="560" y="272" width="16" height="16"><properties><property name="Item" type="int" propertytype="ItemType" value="0"/></properties></object><object id="221" type="BurriedItem" gid="51" x="720" y="240" width="16" height="16"><properties><property name="Item" type="int" propertytype="ItemType" value="0"/></properties></object><object id="222" type="BurriedItem" gid="51" x="736" y="240" width="16" height="16"><properties><property name="Item" type="int" propertytype="ItemType" value="1"/></properties></object><object id="223" type="BurriedItem" gid="51" x="656" y="240" width="16" height="16"><properties><property name="Item" type="int" propertytype="ItemType" value="0"/></properties></object><object id="230" type="BurriedItem" gid="51" x="688" y="160" width="16" height="16"><properties><property name="Item" type="int" propertytype="ItemType" value="2"/></properties></object><object id="231" type="Turtle" gid="53" x="688" y="240" width="16" height="16"/><object id="235" type="Berry" gid="50" x="864" y="192" width="16" height="16"/><object id="238" type="Berry" gid="50" x="880" y="176" width="16" height="16"/><object id="239" type="Berry" gid="50" x="896" y="176" width="16" height="16"/><object id="240" type="Berry" gid="50" x="912" y="192" width="16" height="16"/></objectgroup></map>
